X: 1
T: Miss Elspeth Campbell
M: 4/4
L: 1/8
R: strathspey
K: Amix
e>d|:c<e A2A2 c>d|e2 c>A a2 e>f|g2 e>d B2 G>B|e>dB>A G>Bd>e|
c<e A2A2 c>d|e2 c>A a2 e>f|g2 e>d B>AG>B|1A2 e2 A2 e>d:|2A2 e2 A2(3efg||
a2 a>b a2 e>d|c>de>f g2e2|a2 e>d B2 G>B|e>dB>A G>Bd>e|
c<e A2A2 c>d|e2 c>A a2 e>f|g2 e>d B>AG>B|1A2e2A2 (3efg:|2A2e2A2 e>d|
